fs/scan_dash_28_filled.svg

<svg viewBox="0 0 28 28" fill="none" xmlns="http://www.w3.org/2000/svg" height="1em" width="1em">
  <path d="M7 3C4.79086 3 3 4.79086 3 7V10.3415C3 10.8937 3.44772 11.3415 4 11.3415C4.55228 11.3415 5 10.8937 5 10.3415V7C5 5.89543 5.89543 5 7 5H10.3429C10.8951 5 11.3429 4.55228 11.3429 4C11.3429 3.44772 10.8951 3 10.3429 3H7ZM17.6585 3C17.1063 3 16.6585 3.44772 16.6585 4C16.6585 4.55228 17.1063 5 17.6585 5H21C22.1046 5 23 5.89543 23 7V10.3415C23 10.8937 23.4477 11.3415 24 11.3415C24.5523 11.3415 25 10.8937 25 10.3415V7C25 4.79086 23.2091 3 21 3H17.6585ZM5 17.6585C5 17.1063 4.55228 16.6585 4 16.6585C3.44772 16.6585 3 17.1063 3 17.6585V21C3 23.2091 4.79086 25 7 25H10.3415C10.8937 25 11.3415 24.5523 11.3415 24C11.3415 23.4477 10.8937 23 10.3415 23H7C5.89543 23 5 22.1046 5 21V17.6585ZM25 17.6585C25 17.1063 24.5523 16.6585 24 16.6585C23.4477 16.6585 23 17.1063 23 17.6585V21C23 22.1046 22.1046 23 21 23H17.6585C17.1063 23 16.6585 23.4477 16.6585 24C16.6585 24.5523 17.1063 25 17.6585 25H21C23.2091 25 25 23.2091 25 21V17.6585ZM8.75 13C8.19772 13 7.75 13.4477 7.75 14C7.75 14.5523 8.19772 15 8.75 15H19.25C19.8023 15 20.25 14.5523 20.25 14C20.25 13.4477 19.8023 13 19.25 13H8.75Z" fill="#212121"/>
</svg>

<svg viewBox="0 0 28 28" fill="none" xmlns="http://www.w3.org/2000/svg" height="1em" width="1em">
  <path d="M7 3a4 4 0 0 0-4 4v3.341a1 1 0 0 0 2 0V7a2 2 0 0 1 2-2h3.343a1 1 0 0 0 0-2H7Zm10.659 0a1 1 0 0 0 0 2H21a2 2 0 0 1 2 2v3.341a1 1 0 0 0 2 0V7a4 4 0 0 0-4-4h-3.341ZM5 17.659a1 1 0 0 0-2 0V21a4 4 0 0 0 4 4h3.341a1 1 0 0 0 0-2H7a2 2 0 0 1-2-2v-3.341Zm20 0a1 1 0 0 0-2 0V21a2 2 0 0 1-2 2h-3.341a1 1 0 0 0 0 2H21a4 4 0 0 0 4-4v-3.341ZM8.75 13a1 1 0 1 0 0 2h10.5a1 1 0 1 0 0-2H8.75Z" fill="#212121"/>
</svg>
